; generated by PrusaSlicer 2.3.1+win64 on 2021-06-14 at 17:37:58 UTC

; 

; external perimeters extrusion width = 0.90mm
; perimeters extrusion width = 0.90mm
; infill extrusion width = 0.90mm
; solid infill extrusion width = 0.90mm
; top infill extrusion width = 0.80mm
; first layer extrusion width = 0.90mm

M73 P0 R18
M73 Q0 S18
M201 X1000 Y1000 Z200 E5000 ; sets maximum accelerations, mm/sec^2
M203 X200 Y200 Z12 E120 ; sets maximum feedrates, mm/sec
M204 P1250 R1250 T1250 ; sets acceleration (P, T) and retract acceleration (R), mm/sec^2
M205 X8.00 Y8.00 Z0.40 E4.50 ; sets the jerk limits, mm/sec
M205 S0 T0 ; sets the minimum extruding and travel feed rate, mm/sec
M107
;TYPE:Custom
M862.3 P "MK3" ; printer model check
M115 U3.9.3 ; tell printer latest fw version
G90 ; use absolute coordinates
M83 ; extruder relative mode
M104 S250 ; set extruder temp
M140 S85 ; set bed temp
M190 S85 ; wait for bed temp
M109 S250 ; wait for extruder temp
G28 W ; home all without mesh bed level
G80 ; mesh bed leveling
G1 Y-3.0 F1000.0 ; go outside print area
G92 E0.0
G1 X60.0 E9.0 F1000.0 ; intro line
G1 X100.0 E12.5 F1000.0 ; intro line
G92 E0.0
M221 S95
G21 ; set units to millimeters
G90 ; use absolute coordinates
M83 ; use relative distances for extrusion
M900 K0.02 ; Filament gcode LA 1.5
; ; Filament gcode LA 1.0
;LAYER_CHANGE
;Z:0.3
;HEIGHT:0.3
;BEFORE_LAYER_CHANGE
G92 E0.0
;0.3


G1 E-1.40000 F2100.000
G1 Z0.200 F10800.000
G1 Z0.300
;AFTER_LAYER_CHANGE
;0.3
G1 Z0.500
G1 X80.242 Y78.269
G1 Z0.300
G1 E1.40000 F2100.000
M204 S1000
;TYPE:Skirt
;WIDTH:0.9
G1 F1200.000
G1 X81.637 Y77.272 E0.17872
G1 X83.049 Y76.653 E0.16068
G1 X84.557 Y76.324 E0.16089
G1 X89.505 Y76.269 E0.51574
G1 X166.969 Y81.964 E8.09531
M73 P1 R18
M73 Q1 S18
G1 X168.312 Y82.253 E0.14319
G1 X169.625 Y82.923 E0.15360
G1 X170.596 Y83.779 E0.13487
G1 X171.313 Y84.790 E0.12914
G1 X171.787 Y85.941 E0.12981
G1 X171.992 Y87.196 E0.13248
G1 X172.364 Y128.353 E4.28966
G1 X172.296 Y129.100 E0.07820
G1 X172.127 Y129.826 E0.07767
G1 X171.805 Y130.643 E0.09156
G1 X171.428 Y131.298 E0.07877
G1 X170.544 Y132.315 E0.14050
G1 X169.320 Y133.149 E0.15430
G1 X168.056 Y133.599 E0.13981
G1 X166.706 Y133.727 E0.14139
G1 X84.775 Y128.909 E8.55387
G1 X83.840 Y128.769 E0.09853
G1 X82.922 Y128.513 E0.09924
G1 X82.103 Y128.177 E0.09233
G1 X80.981 Y127.525 E0.13523
G1 X79.674 Y126.377 E0.18124
G1 X78.688 Y125.028 E0.17420
G1 X78.010 Y123.499 E0.17425
G1 X77.668 Y121.800 E0.18072
G1 X77.635 Y84.095 E3.92966
G1 X77.775 Y82.645 E0.15188
G1 X78.001 Y81.740 E0.09723
G1 X78.293 Y80.963 E0.08650
G1 X79.120 Y79.516 E0.17373
G1 X80.162 Y78.359 E0.16224
; printing object TableClothClip - V1.stl id:0 copy 0
;WIPE_START
G1 F8640.000
G1 X81.637 Y77.272 E-0.42306
G1 X83.049 Y76.653 E-0.35598
G1 X84.557 Y76.324 E-0.35645
G1 X85.400 Y76.315 E-0.19451
;WIPE_END
G1 E-0.07000 F2100.000
G1 Z0.500 F10800.000
G1 X125.000 Y123.619
M73 P2 R18
M73 Q2 S18
G1 Z0.300
G1 E1.40000 F2100.000
;TYPE:Perimeter
G1 F1200.000
G1 X85.510 Y123.619 E4.11577
G1 X85.208 Y123.604 E0.03147
G1 X84.949 Y123.562 E0.02741
G1 X84.695 Y123.494 E0.02741
G1 X84.449 Y123.400 E0.02741
G1 X84.215 Y123.281 E0.02741
G1 X83.994 Y123.138 E0.02741
G1 X83.790 Y122.972 E0.02741
G1 X83.604 Y122.786 E0.02741
G1 X83.439 Y122.582 E0.02741
G1 X83.295 Y122.361 E0.02741
G1 X83.176 Y122.127 E0.02741
G1 X83.082 Y121.881 E0.02741
G1 X83.014 Y121.627 E0.02741
G1 X82.972 Y121.368 E0.02741
G1 X82.957 Y121.066 E0.03147
G1 X82.957 Y84.144 E3.84814
G1 X82.972 Y83.842 E0.03147
G1 X83.014 Y83.583 E0.02741
G1 X83.082 Y83.329 E0.02741
G1 X83.176 Y83.083 E0.02741
G1 X83.295 Y82.849 E0.02741
G1 X83.439 Y82.628 E0.02741
G1 X83.604 Y82.424 E0.02741
G1 X83.790 Y82.238 E0.02741
G1 X83.994 Y82.072 E0.02741
G1 X84.215 Y81.929 E0.02741
G1 X84.449 Y81.810 E0.02741
G1 X84.695 Y81.716 E0.02741
G1 X84.949 Y81.648 E0.02741
G1 X85.208 Y81.606 E0.02741
G1 X85.510 Y81.591 E0.03147
G1 X89.464 Y81.591 E0.41207
G1 X89.751 Y81.605 E0.02994
G1 X89.998 Y81.642 E0.02608
G1 X90.476 Y81.789 E0.05208
G1 X90.915 Y82.028 E0.05209
G1 X91.299 Y82.350 E0.05222
G1 X94.968 Y86.482 E0.57600
G1 X98.864 Y90.043 E0.55008
G1 X103.109 Y93.179 E0.55007
G1 X107.657 Y95.857 E0.55007
G1 X112.459 Y98.048 E0.55007
G1 X117.462 Y99.728 E0.55007
G1 X122.613 Y100.880 E0.55007
G1 X127.855 Y101.490 E0.55007
G1 X133.133 Y101.551 E0.55007
G1 X138.388 Y101.064 E0.55007
G1 X143.564 Y100.034 E0.55007
G1 X148.605 Y98.471 E0.55007
G1 X153.457 Y96.393 E0.55007
G1 X158.066 Y93.822 E0.55007
G1 X162.383 Y90.786 E0.55007
G1 X166.352 Y87.327 E0.54865
G1 X166.459 Y87.273 E0.01255
G1 X166.518 Y87.273 E0.00608
G1 X166.626 Y87.333 E0.01291
G1 X166.653 Y87.373 E0.00506
G1 X166.669 Y87.459 E0.00904
G1 X166.612 Y87.590 E0.01496
G1 X162.612 Y91.077 E0.55307
G1 X158.263 Y94.135 E0.55408
G1 X153.620 Y96.725 E0.55408
G1 X148.733 Y98.818 E0.55408
G1 X143.655 Y100.392 E0.55408
G1 X138.441 Y101.430 E0.55408
M73 Q3 S18
G1 X133.148 Y101.921 E0.55408
M73 P3 R18
G1 X127.832 Y101.859 E0.55408
G1 X122.551 Y101.244 E0.55408
G1 X117.363 Y100.085 E0.55408
G1 X112.323 Y98.392 E0.55408
G1 X107.486 Y96.185 E0.55408
G1 X102.905 Y93.487 E0.55408
G1 X98.629 Y90.328 E0.55408
G1 X94.705 Y86.742 E0.55408
G1 X91.075 Y82.655 E0.56969
G1 X90.715 Y82.322 E0.05118
G1 X90.136 Y82.043 E0.06695
G1 X89.612 Y81.964 E0.05523
G1 X85.354 Y81.964 E0.44375
G1 X84.804 Y82.052 E0.05807
G1 X84.202 Y82.358 E0.07040
G1 X83.724 Y82.836 E0.07041
G1 X83.418 Y83.438 E0.07041
G1 X83.330 Y83.988 E0.05807
G1 X83.330 Y121.222 E3.88062
G1 X83.418 Y121.772 E0.05807
G1 X83.724 Y122.374 E0.07041
G1 X84.202 Y122.852 E0.07041
G1 X84.804 Y123.158 E0.07040
G1 X85.354 Y123.246 E0.05807
G1 X156.431 Y123.246 E7.40784
M73 P3 R17
M73 Q3 S17
G1 X157.963 Y123.328 E0.15996
G1 X159.438 Y123.570 E0.15577
G1 X160.877 Y123.968 E0.15561
G1 X162.268 Y124.520 E0.15593
G1 X163.589 Y125.218 E0.15576
G1 X164.828 Y126.055 E0.15577
G1 X165.969 Y127.020 E0.15577
G1 X166.999 Y128.103 E0.15576
G1 X167.039 Y128.222 E0.01314
G1 X167.013 Y128.315 E0.01006
G1 X166.917 Y128.395 E0.01303
G1 X166.849 Y128.403 E0.00712
G1 X166.767 Y128.376 E0.00904
G1 X165.715 Y127.289 E0.15765
G1 X164.605 Y126.349 E0.15161
G1 X163.399 Y125.535 E0.15161
G1 X162.113 Y124.855 E0.15161
G1 X160.761 Y124.318 E0.15161
G1 X159.359 Y123.930 E0.15161
G1 X157.924 Y123.696 E0.15161
G1 X156.511 Y123.619 E0.14742
G1 X125.120 Y123.619 E3.27168
M73 P4 R17
M73 Q4 S17
G1 X125.000 Y124.455 F10800.000
;TYPE:External perimeter
G1 F1200.000
G1 X85.488 Y124.455 E4.11805
G1 X85.121 Y124.436 E0.03831
G1 X84.775 Y124.381 E0.03654
G1 X84.436 Y124.290 E0.03654
G1 X84.109 Y124.165 E0.03654
G1 X83.796 Y124.005 E0.03654
G1 X83.502 Y123.814 E0.03654
G1 X83.230 Y123.594 E0.03654
G1 X82.982 Y123.346 E0.03654
G1 X82.762 Y123.074 E0.03654
G1 X82.571 Y122.780 E0.03654
G1 X82.411 Y122.467 E0.03654
G1 X82.286 Y122.140 E0.03654
G1 X82.195 Y121.801 E0.03654
G1 X82.140 Y121.455 E0.03654
G1 X82.121 Y121.088 E0.03831
G1 X82.121 Y84.122 E3.85271
G1 X82.140 Y83.755 E0.03831
G1 X82.195 Y83.409 E0.03654
G1 X82.286 Y83.070 E0.03654
G1 X82.411 Y82.743 E0.03654
G1 X82.571 Y82.430 E0.03654
G1 X82.762 Y82.136 E0.03654
G1 X82.982 Y81.864 E0.03654
G1 X83.230 Y81.616 E0.03654
G1 X83.502 Y81.396 E0.03654
G1 X83.796 Y81.205 E0.03654
G1 X84.109 Y81.045 E0.03654
G1 X84.436 Y80.920 E0.03654
G1 X84.775 Y80.829 E0.03654
G1 X85.121 Y80.774 E0.03654
G1 X85.488 Y80.755 E0.03831
G1 X89.484 Y80.755 E0.41652
G1 X89.834 Y80.772 E0.03645
G1 X90.164 Y80.822 E0.03476
G1 X90.487 Y80.904 E0.03476
G1 X90.800 Y81.018 E0.03476
G1 X91.101 Y81.163 E0.03476
G1 X91.385 Y81.336 E0.03476
G1 X91.651 Y81.538 E0.03476
G1 X91.896 Y81.765 E0.03481
G1 X95.564 Y85.895 E0.57570
G1 X99.396 Y89.397 E0.54100
G1 X103.571 Y92.481 E0.54100
G1 X108.044 Y95.115 E0.54100
G1 X112.766 Y97.270 E0.54100
G1 X117.687 Y98.922 E0.54100
G1 X122.752 Y100.055 E0.54100
G1 X127.909 Y100.655 E0.54100
G1 X133.099 Y100.715 E0.54100
G1 X138.268 Y100.236 E0.54100
G1 X143.358 Y99.223 E0.54100
G1 X148.316 Y97.686 E0.54100
G1 X153.088 Y95.642 E0.54100
G1 X157.621 Y93.114 E0.54100
G1 X161.867 Y90.128 E0.54100
G1 X165.855 Y86.652 E0.55130
G1 X166.052 Y86.530 E0.02421
G1 X166.357 Y86.439 E0.03315
G1 X166.687 Y86.449 E0.03443
G1 X166.908 Y86.521 E0.02426
G1 X167.099 Y86.633 E0.02298
G1 X167.260 Y86.782 E0.02298
G1 X167.430 Y87.052 E0.03315
G1 X167.495 Y87.275 E0.02426
G1 X167.509 Y87.495 E0.02298
G1 X167.476 Y87.713 E0.02298
G1 X167.396 Y87.919 E0.02298
G1 X167.200 Y88.185 E0.03449
G1 X163.128 Y91.736 E0.56308
G1 X158.708 Y94.844 E0.56316
G1 X153.989 Y97.476 E0.56316
G1 X149.022 Y99.604 E0.56316
G1 X143.861 Y101.203 E0.56316
M73 Q5 S17
G1 X138.562 Y102.258 E0.56316
M73 P5 R17
G1 X133.181 Y102.757 E0.56316
G1 X127.778 Y102.694 E0.56316
G1 X122.411 Y102.069 E0.56316
G1 X117.138 Y100.891 E0.56316
G1 X112.016 Y99.170 E0.56316
G1 X107.100 Y96.927 E0.56316
G1 X102.444 Y94.185 E0.56316
G1 X98.098 Y90.975 E0.56316
G1 X94.109 Y87.330 E0.56316
G1 X90.477 Y83.241 E0.56999
G1 X90.239 Y83.020 E0.03382
G1 X89.887 Y82.851 E0.04072
G1 X89.549 Y82.800 E0.03559
G1 X85.420 Y82.800 E0.43038
G1 X85.065 Y82.856 E0.03742
G1 X84.699 Y83.043 E0.04282
G1 X84.409 Y83.333 E0.04282
G1 X84.222 Y83.699 E0.04282
G1 X84.166 Y84.054 E0.03742
G1 X84.166 Y121.156 E3.86692
G1 X84.222 Y121.511 E0.03742
G1 X84.409 Y121.877 E0.04282
G1 X84.699 Y122.167 E0.04282
G1 X85.065 Y122.354 E0.04282
G1 X85.420 Y122.410 E0.03742
G1 X156.453 Y122.410 E7.40334
G1 X158.054 Y122.497 E0.16702
G1 X159.618 Y122.752 E0.16518
G1 X161.144 Y123.175 E0.16502
G1 X162.618 Y123.760 E0.16535
G1 X164.020 Y124.500 E0.16518
G1 X165.333 Y125.388 E0.16518
G1 X166.543 Y126.411 E0.16518
G1 X167.703 Y127.647 E0.17665
G1 X167.840 Y127.947 E0.03441
G1 X167.879 Y128.263 E0.03315
G1 X167.842 Y128.493 E0.02426
G1 X167.756 Y128.709 E0.02426
G1 X167.554 Y128.970 E0.03443
G1 X167.488 Y129.026 E0.00898
G1 X167.279 Y129.153 E0.02554
G1 X167.093 Y129.216 E0.02048
G1 X166.849 Y129.243 E0.02554
G1 X166.536 Y129.190 E0.03315
G1 X166.335 Y129.097 E0.02298
G1 X166.150 Y128.957 E0.02426
G1 X165.141 Y127.898 E0.15245
G1 X164.100 Y127.016 E0.14219
G1 X162.969 Y126.253 E0.14219
G1 X161.763 Y125.615 E0.14219
G1 X160.495 Y125.112 E0.14219
G1 X159.180 Y124.748 E0.14219
G1 X157.833 Y124.528 E0.14219
G1 X156.489 Y124.455 E0.14036
G1 X125.120 Y124.455 E3.26933
M73 P6 R17
M73 Q6 S17
G1 X124.601 Y123.762 F10800.000
; stop printing object TableClothClip - V1.stl id:0 copy 0
;LAYER_CHANGE
;Z:0.7
;HEIGHT:0.4
;BEFORE_LAYER_CHANGE
G92 E0.0
;0.7


;WIPE_START
G1 F8640.000
G1 X119.360 Y124.455 E-1.33000
;WIPE_END
G1 E-0.07000 F2100.000
G1 Z0.500 F10800.000
G1 Z0.700
;AFTER_LAYER_CHANGE
;0.7
M104 S230 ; set temperature
M140 S90 ; set bed temperature
G1 Z0.900
G1 X168.312 Y82.253
G1 Z0.700
G1 E1.40000 F2100.000
;TYPE:Skirt
G1 F2400.000
G1 X169.625 Y82.923 E0.19955
G1 X170.596 Y83.779 E0.17521
G1 X171.313 Y84.790 E0.16777
G1 X171.787 Y85.941 E0.16864
G1 X171.992 Y87.196 E0.17210
G1 X172.364 Y128.353 E5.57266
G1 X172.296 Y129.100 E0.10158
G1 X172.127 Y129.826 E0.10090
G1 X171.805 Y130.643 E0.11894
G1 X171.428 Y131.298 E0.10232
G1 X170.544 Y132.315 E0.18253
G1 X169.320 Y133.149 E0.20045
G1 X168.056 Y133.599 E0.18162
G1 X166.706 Y133.727 E0.18368
G1 X84.775 Y128.909 E11.11226
G1 X83.840 Y128.769 E0.12799
G1 X82.922 Y128.513 E0.12892
G1 X82.103 Y128.177 E0.11995
G1 X80.981 Y127.525 E0.17568
G1 X79.674 Y126.377 E0.23545
G1 X78.688 Y125.028 E0.22630
G1 X78.010 Y123.499 E0.22636
G1 X77.668 Y121.800 E0.23477
G1 X77.635 Y84.095 E5.10499
G1 X77.775 Y82.645 E0.19731
G1 X78.001 Y81.740 E0.12631
G1 X78.293 Y80.963 E0.11237
G1 X79.120 Y79.516 E0.22569
G1 X80.242 Y78.269 E0.22701
G1 X81.637 Y77.272 E0.23218
G1 X83.049 Y76.653 E0.20874
G1 X84.557 Y76.324 E0.20901
G1 X89.505 Y76.269 E0.67000
G1 X166.969 Y81.964 E10.51654
G1 X168.195 Y82.228 E0.16977
; printing object TableClothClip - V1.stl id:0 copy 0
;WIPE_START
G1 F8640.000
G1 X169.625 Y82.923 E-0.36715
G1 X170.596 Y83.779 E-0.29881
G1 X171.313 Y84.790 E-0.28611
G1 X171.787 Y85.941 E-0.28760
G1 X171.850 Y86.327 E-0.09033
;WIPE_END
G1 E-0.07000 F2100.000
G1 Z0.900 F10800.000
G1 X125.000 Y123.841
G1 Z0.700
G1 E1.40000 F2100.000
M204 S800
;TYPE:Perimeter
G1 F3000.000
G1 X85.504 Y123.841 E5.34755
M73 Q7 S17
G1 X85.185 Y123.824 E0.04324
G1 X84.903 Y123.779 E0.03875
G1 X84.626 Y123.705 E0.03875
G1 X84.359 Y123.603 E0.03875
G1 X84.104 Y123.473 E0.03875
G1 X83.864 Y123.317 E0.03875
G1 X83.642 Y123.137 E0.03875
G1 X83.439 Y122.934 E0.03875
G1 X83.265 Y122.719 E0.03755
G1 X83.103 Y122.471 E0.04016
G1 X82.973 Y122.217 E0.03853
G1 X82.871 Y121.950 E0.03875
G1 X82.797 Y121.673 E0.03875
G1 X82.752 Y121.391 E0.03875
G1 X82.735 Y121.072 E0.04324
G1 X82.735 Y84.138 E5.00066
M73 P7 R17
G1 X82.752 Y83.819 E0.04324
G1 X82.797 Y83.537 E0.03875
G1 X82.871 Y83.260 E0.03875
G1 X82.973 Y82.993 E0.03875
G1 X83.103 Y82.738 E0.03875
G1 X83.259 Y82.498 E0.03875
G1 X83.439 Y82.276 E0.03875
G1 X83.642 Y82.073 E0.03875
G1 X83.864 Y81.893 E0.03875
G1 X84.104 Y81.737 E0.03875
G1 X84.359 Y81.607 E0.03875
G1 X84.626 Y81.505 E0.03875
G1 X84.894 Y81.433 E0.03755
G1 X85.187 Y81.386 E0.04016
G1 X85.504 Y81.369 E0.04302
G1 X89.469 Y81.369 E0.53684
G1 X89.764 Y81.384 E0.03999
G1 X90.043 Y81.425 E0.03821
G1 X90.306 Y81.492 E0.03665
G1 X90.562 Y81.585 E0.03686
G1 X90.807 Y81.703 E0.03686
G1 X91.032 Y81.840 E0.03572
G1 X91.258 Y82.010 E0.03820
G1 X91.457 Y82.195 E0.03683
G1 X95.126 Y86.327 E0.74814
G1 X99.005 Y89.872 E0.71148
G1 X103.232 Y92.994 E0.71147
G1 X107.760 Y95.660 E0.71147
G1 X112.540 Y97.842 E0.71147
G1 X117.522 Y99.515 E0.71147
G1 X122.650 Y100.661 E0.71147
G1 X127.869 Y101.268 E0.71147
G1 X133.124 Y101.330 E0.71147
G1 X138.356 Y100.845 E0.71147
G1 X143.510 Y99.819 E0.71147
G1 X148.529 Y98.263 E0.71147
G1 X153.359 Y96.194 E0.71147
G1 X157.948 Y93.634 E0.71147
G1 X162.247 Y90.612 E0.71146
G1 X166.216 Y87.152 E0.71295
G1 X166.337 Y87.077 E0.01925
G1 X166.552 Y87.052 E0.02932
G1 X166.655 Y87.085 E0.01462
G1 X166.793 Y87.188 E0.02333
G1 X166.855 Y87.277 E0.01472
G1 X166.892 Y87.490 E0.02926
G1 X166.825 Y87.672 E0.02630
G1 X166.746 Y87.767 E0.01660
G1 X162.748 Y91.252 E0.71809
G1 X158.381 Y94.323 E0.72293
G1 X153.718 Y96.924 E0.72293
G1 X148.810 Y99.026 E0.72293
G1 X143.710 Y100.607 E0.72293
G1 X138.473 Y101.650 E0.72293
G1 X133.157 Y102.142 E0.72293
G1 X127.818 Y102.080 E0.72293
G1 X122.514 Y101.463 E0.72293
G1 X117.303 Y100.298 E0.72293
G1 X112.242 Y98.598 E0.72293
G1 X107.384 Y96.382 E0.72293
G1 X102.783 Y93.672 E0.72293
G1 X98.489 Y90.500 E0.72293
G1 X94.547 Y86.898 E0.72293
G1 X90.917 Y82.810 E0.74019
G1 X90.589 Y82.507 E0.06051
G1 X90.070 Y82.257 E0.07794
G1 X89.595 Y82.186 E0.06498
G1 X85.372 Y82.186 E0.57187
G1 X84.873 Y82.265 E0.06833
G1 X84.334 Y82.540 E0.08196
G1 X83.906 Y82.968 E0.08196
G1 X83.631 Y83.507 E0.08197
G1 X83.552 Y84.006 E0.06833
G1 X83.552 Y121.204 E5.03656
G1 X83.631 Y121.703 E0.06833
G1 X83.906 Y122.242 E0.08197
G1 X84.334 Y122.670 E0.08196
G1 X84.873 Y122.945 E0.08196
G1 X85.372 Y123.024 E0.06833
G1 X156.437 Y123.024 E9.62191
G1 X157.987 Y123.108 E0.21023
G1 X159.486 Y123.353 E0.20560
G1 X160.949 Y123.758 E0.20560
G1 X162.324 Y124.304 E0.20022
G1 X163.705 Y125.029 E0.21117
G1 X164.962 Y125.878 E0.20537
G1 X166.121 Y126.859 E0.20560
G1 X167.144 Y127.934 E0.20093
G1 X167.212 Y128.034 E0.01643
G1 X167.263 Y128.221 E0.02630
G1 X167.206 Y128.429 E0.02919
G1 X167.121 Y128.530 E0.01776
G1 X166.998 Y128.604 E0.01939
G1 X166.838 Y128.626 E0.02194
G1 X166.653 Y128.567 E0.02630
G1 X166.556 Y128.493 E0.01640
G1 X165.563 Y127.450 E0.19503
G1 X164.471 Y126.526 E0.19371
G1 X163.285 Y125.725 E0.19371
G1 X162.020 Y125.057 E0.19371
G1 X160.691 Y124.529 E0.19371
G1 X159.312 Y124.147 E0.19371
G1 X157.900 Y123.916 E0.19371
G1 X156.505 Y123.841 E0.18908
G1 X125.120 Y123.841 E4.24941
M204 S1000
G1 X125.000 Y124.655 F10800.000
M204 S800
;TYPE:External perimeter
G1 F3000.000
G1 X85.483 Y124.655 E5.35044
G1 X85.100 Y124.635 E0.05190
G1 X84.733 Y124.577 E0.05030
G1 X84.374 Y124.481 E0.05030
G1 X84.027 Y124.348 E0.05030
G1 X83.696 Y124.179 E0.05030
G1 X83.385 Y123.977 E0.05030
G1 X83.096 Y123.743 E0.05030
G1 X82.833 Y123.480 E0.05030
