; generated by PrusaSlicer 2.3.1+win64 on 2021-05-11 at 15:28:02 UTC

; 

; external perimeters extrusion width = 0.90mm
; perimeters extrusion width = 0.90mm
; infill extrusion width = 0.90mm
; solid infill extrusion width = 0.90mm
; top infill extrusion width = 0.80mm
; first layer extrusion width = 0.90mm

M73 P0 R29
M73 Q0 S29
M201 X1000 Y1000 Z200 E5000 ; sets maximum accelerations, mm/sec^2
M203 X200 Y200 Z12 E120 ; sets maximum feedrates, mm/sec
M204 P1250 R1250 T1250 ; sets acceleration (P, T) and retract acceleration (R), mm/sec^2
M205 X8.00 Y8.00 Z0.40 E4.50 ; sets the jerk limits, mm/sec
M205 S0 T0 ; sets the minimum extruding and travel feed rate, mm/sec
M107
;TYPE:Custom
M862.3 P "MK3" ; printer model check
M115 U3.9.3 ; tell printer latest fw version
G90 ; use absolute coordinates
M83 ; extruder relative mode
M104 S250 ; set extruder temp
M140 S85 ; set bed temp
M190 S85 ; wait for bed temp
M109 S250 ; wait for extruder temp
G28 W ; home all without mesh bed level
G80 ; mesh bed leveling
G1 Y-3.0 F1000.0 ; go outside print area
G92 E0.0
G1 X60.0 E9.0 F1000.0 ; intro line
G1 X100.0 E12.5 F1000.0 ; intro line
G92 E0.0
M221 S95
G21 ; set units to millimeters
G90 ; use absolute coordinates
M83 ; use relative distances for extrusion
M900 K0.02 ; Filament gcode LA 1.5
; ; Filament gcode LA 1.0
;LAYER_CHANGE
;Z:0.3
;HEIGHT:0.3
;BEFORE_LAYER_CHANGE
G92 E0.0
;0.3


G1 E-1.40000 F2100.000
G1 Z0.200 F10800.000
G1 Z0.300
;AFTER_LAYER_CHANGE
;0.3
G1 Z0.500
G1 X109.601 Y89.988
G1 Z0.300
G1 E1.40000 F2100.000
M204 S1000
;TYPE:Skirt
;WIDTH:0.9
G1 F1200.000
G1 X110.167 Y89.455 E0.08105
G1 X110.825 Y89.049 E0.08055
G1 X111.556 Y88.782 E0.08105
G1 X112.320 Y88.669 E0.08055
G1 X137.505 Y88.664 E2.62485
G1 X138.212 Y88.731 E0.07402
G1 X138.890 Y88.925 E0.07352
G1 X139.521 Y89.240 E0.07352
G1 X140.088 Y89.669 E0.07402
G1 X140.562 Y90.191 E0.07352
G1 X140.934 Y90.790 E0.07352
G1 X141.189 Y91.448 E0.07352
G1 X141.319 Y92.146 E0.07402
G1 X141.334 Y117.626 E2.65556
G1 X141.257 Y118.274 E0.06800
G1 X141.071 Y118.899 E0.06800
G1 X140.783 Y119.484 E0.06800
G1 X140.399 Y120.012 E0.06800
G1 X139.809 Y120.562 E0.08406
G1 X139.118 Y120.978 E0.08406
G1 X138.350 Y121.240 E0.08456
G1 X137.549 Y121.335 E0.08406
G1 X112.369 Y121.333 E2.62435
G1 X111.722 Y121.256 E0.06800
G1 X111.096 Y121.070 E0.06800
G1 X110.516 Y120.783 E0.06749
G1 X109.988 Y120.399 E0.06800
G1 X109.438 Y119.809 E0.08406
G1 X109.022 Y119.118 E0.08406
G1 X108.760 Y118.350 E0.08456
G1 X108.665 Y117.549 E0.08406
G1 X108.667 Y92.369 E2.62435
G1 X108.744 Y91.722 E0.06800
G1 X108.930 Y91.096 E0.06800
G1 X109.217 Y90.516 E0.06749
G1 X109.531 Y90.085 E0.05549
; printing object Wall thickness test - Part 2(1).stl id:0 copy 0
;WIPE_START
G1 F8640.000
G1 X110.167 Y89.455 E-0.20685
G1 X110.825 Y89.049 E-0.17845
G1 X111.556 Y88.782 E-0.17956
G1 X112.320 Y88.669 E-0.17845
G1 X114.861 Y88.668 E-0.58668
;WIPE_END
G1 E-0.07000 F2100.000
G1 Z0.500 F10800.000
G1 X125.000 Y116.014
G1 Z0.300
G1 E1.40000 F2100.000
;TYPE:Perimeter
G1 F1200.000
G1 X113.986 Y116.014 E1.14795
G1 X113.986 Y93.986 E2.29591
M73 P0 R28
G1 X136.014 Y93.986 E2.29591
M73 Q0 S28
G1 X136.014 Y116.014 E2.29591
M73 P1 R28
M73 Q1 S28
G1 X125.120 Y116.014 E1.13545
G1 X125.000 Y116.850 F10800.000
;TYPE:External perimeter
G1 F1200.000
G1 X113.150 Y116.850 E1.23504
G1 X113.150 Y93.150 E2.47009
G1 X136.850 Y93.150 E2.47009
G1 X136.850 Y116.850 E2.47009
G1 X125.120 Y116.850 E1.22254
G1 X124.377 Y116.348 F10800.000
;WIPE_START
G1 F8640.000
G1 X119.360 Y116.850 E-1.33000
;WIPE_END
G1 E-0.07000 F2100.000
G1 Z0.500 F10800.000
G1 X134.081 Y94.195
G1 Z0.300
G1 E1.40000 F2100.000
;TYPE:Solid infill
;WIDTH:0.916622
G1 F1200.000
G1 X135.429 Y95.543 E0.20269
G1 X135.429 Y96.748 E0.12811
G1 X133.252 Y94.571 E0.32735
G1 X132.047 Y94.571 E0.12811
G1 X135.429 Y97.953 E0.50853
G1 X135.429 Y99.159 E0.12811
G1 X130.841 Y94.571 E0.68971
G1 X129.636 Y94.571 E0.12811
G1 X135.429 Y100.364 E0.87089
G1 X135.429 Y101.569 E0.12811
G1 X128.431 Y94.571 E1.05207
G1 X127.226 Y94.571 E0.12811
G1 X135.429 Y102.774 E1.23325
G1 X135.429 Y103.980 E0.12811
G1 X126.020 Y94.571 E1.41443
G1 X124.815 Y94.571 E0.12811
G1 X135.429 Y105.185 E1.59561
G1 X135.429 Y106.390 E0.12811
G1 X123.610 Y94.571 E1.77679
G1 X122.405 Y94.571 E0.12811
G1 X135.429 Y107.595 E1.95797
G1 X135.429 Y108.801 E0.12811
G1 X121.199 Y94.571 E2.13915
G1 X119.994 Y94.571 E0.12811
G1 X135.429 Y110.006 E2.32033
G1 X135.429 Y111.211 E0.12811
G1 X118.789 Y94.571 E2.50151
G1 X117.584 Y94.571 E0.12811
G1 X135.429 Y112.416 E2.68268
M73 P2 R28
M73 Q2 S28
G1 X135.429 Y113.622 E0.12811
G1 X116.378 Y94.571 E2.86386
G1 X115.173 Y94.571 E0.12811
G1 X135.429 Y114.827 E3.04504
G1 X135.429 Y115.429 E0.06405
G1 X134.827 Y115.429 E0.06406
G1 X114.571 Y95.173 E3.04503
G1 X114.571 Y96.378 E0.12811
G1 X133.622 Y115.429 E2.86385
G1 X132.416 Y115.429 E0.12811
G1 X114.571 Y97.584 E2.68267
G1 X114.571 Y98.789 E0.12811
G1 X131.211 Y115.429 E2.50149
G1 X130.006 Y115.429 E0.12811
G1 X114.571 Y99.994 E2.32031
G1 X114.571 Y101.199 E0.12811
G1 X128.801 Y115.429 E2.13913
G1 X127.595 Y115.429 E0.12811
G1 X114.571 Y102.405 E1.95795
G1 X114.571 Y103.610 E0.12811
G1 X126.390 Y115.429 E1.77677
G1 X125.185 Y115.429 E0.12811
G1 X114.571 Y104.815 E1.59559
G1 X114.571 Y106.020 E0.12811
G1 X123.980 Y115.429 E1.41441
G1 X122.774 Y115.429 E0.12811
G1 X114.571 Y107.226 E1.23323
G1 X114.571 Y108.431 E0.12811
G1 X121.569 Y115.429 E1.05205
G1 X120.364 Y115.429 E0.12811
G1 X114.571 Y109.636 E0.87087
G1 X114.571 Y110.841 E0.12811
G1 X119.159 Y115.429 E0.68969
G1 X117.953 Y115.429 E0.12811
G1 X114.571 Y112.047 E0.50851
M73 Q3 S28
G1 X114.571 Y113.252 E0.12811
G1 X116.748 Y115.429 E0.32733
G1 X115.543 Y115.429 E0.12811
M73 P3 R28
G1 X114.195 Y114.081 E0.20268
; stop printing object Wall thickness test - Part 2(1).stl id:0 copy 0
;LAYER_CHANGE
;Z:0.7
;HEIGHT:0.4
;BEFORE_LAYER_CHANGE
G92 E0.0
;0.7


;WIPE_START
G1 F8640.000
G1 X115.543 Y115.429 E-0.44027
G1 X116.748 Y115.429 E-0.27830
G1 X114.876 Y113.557 E-0.61144
;WIPE_END
G1 E-0.07000 F2100.000
G1 Z0.500 F10800.000
G1 Z0.700
;AFTER_LAYER_CHANGE
;0.7
M104 S230 ; set temperature
M140 S90 ; set bed temperature
G1 Z0.900
G1 X108.760 Y118.350
G1 Z0.700
G1 E1.40000 F2100.000
;TYPE:Skirt
;WIDTH:0.9
G1 F2400.000
G1 X108.665 Y117.549 E0.10920
G1 X108.667 Y92.369 E3.40926
G1 X108.744 Y91.722 E0.08833
G1 X108.930 Y91.096 E0.08833
G1 X109.217 Y90.516 E0.08768
G1 X109.601 Y89.988 E0.08833
G1 X110.167 Y89.455 E0.10529
G1 X110.825 Y89.049 E0.10464
G1 X111.556 Y88.782 E0.10529
G1 X112.320 Y88.669 E0.10464
G1 X137.505 Y88.664 E3.40991
G1 X138.212 Y88.731 E0.09616
G1 X138.890 Y88.925 E0.09551
G1 X139.521 Y89.240 E0.09551
G1 X140.088 Y89.669 E0.09616
G1 X140.562 Y90.191 E0.09551
G1 X140.934 Y90.790 E0.09551
G1 X141.189 Y91.448 E0.09551
G1 X141.319 Y92.146 E0.09616
G1 X141.334 Y117.626 E3.44981
G1 X141.257 Y118.274 E0.08833
G1 X141.071 Y118.899 E0.08833
G1 X140.783 Y119.484 E0.08833
G1 X140.399 Y120.012 E0.08833
G1 X139.809 Y120.562 E0.10920
G1 X139.118 Y120.978 E0.10920
G1 X138.350 Y121.240 E0.10985
G1 X137.549 Y121.335 E0.10920
G1 X112.369 Y121.333 E3.40926
G1 X111.722 Y121.256 E0.08833
G1 X111.096 Y121.070 E0.08833
G1 X110.516 Y120.783 E0.08768
G1 X109.988 Y120.399 E0.08833
G1 X109.438 Y119.809 E0.10920
G1 X109.022 Y119.118 E0.10920
G1 X108.799 Y118.464 E0.09360
; printing object Wall thickness test - Part 2(1).stl id:0 copy 0
;WIPE_START
G1 F8640.000
G1 X108.665 Y117.549 E-0.21340
G1 X108.665 Y112.714 E-1.11660
;WIPE_END
G1 E-0.07000 F2100.000
G1 Z0.900 F10800.000
G1 X125.000 Y116.236
G1 Z0.700
G1 E1.40000 F2100.000
M204 S800
;TYPE:Perimeter
G1 F3000.000
G1 X113.764 Y116.236 E1.52128
G1 X113.764 Y93.764 E3.04256
G1 X136.236 Y93.764 E3.04256
G1 X136.236 Y116.236 E3.04256
G1 X125.120 Y116.236 E1.50503
M204 S1000
G1 X125.000 Y117.050 F10800.000
M204 S800
;TYPE:External perimeter
G1 F3000.000
G1 X112.950 Y117.050 E1.63151
G1 X112.950 Y92.950 E3.26303
G1 X137.050 Y92.950 E3.26303
G1 X137.050 Y117.050 E3.26303
G1 X125.120 Y117.050 E1.61527
M204 S1000
G1 X124.377 Y116.548 F10800.000
;WIPE_START
G1 F8640.000
G1 X119.360 Y117.050 E-1.33000
;WIPE_END
G1 E-0.07000 F2100.000
G1 Z0.900 F10800.000
G1 X113.968 Y95.635
G1 Z0.700
G1 E1.40000 F2100.000
;TYPE:Solid infill
;WIDTH:0.91003
G1 F2700.000
G1 X115.268 Y94.334 E0.25209
G1 X116.434 Y94.334 E0.15976
G1 X114.334 Y96.434 E0.40701
G1 X114.334 Y97.599 E0.15976
G1 X117.599 Y94.334 E0.63294
G1 X118.765 Y94.334 E0.15976
G1 X114.334 Y98.765 E0.85887
G1 X114.334 Y99.931 E0.15976
G1 X119.931 Y94.334 E1.08480
G1 X121.096 Y94.334 E0.15976
G1 X114.334 Y101.096 E1.31074
G1 X114.334 Y102.262 E0.15976
G1 X122.262 Y94.334 E1.53667
G1 X123.427 Y94.334 E0.15976
G1 X114.334 Y103.427 E1.76260
G1 X114.334 Y104.593 E0.15976
G1 X124.593 Y94.334 E1.98853
G1 X125.758 Y94.334 E0.15976
G1 X114.334 Y105.758 E2.21446
G1 X114.334 Y106.924 E0.15976
G1 X126.924 Y94.334 E2.44040
G1 X128.090 Y94.334 E0.15976
G1 X114.334 Y108.090 E2.66633
G1 X114.334 Y109.255 E0.15976
G1 X129.255 Y94.334 E2.89226
G1 X130.421 Y94.334 E0.15976
G1 X114.334 Y110.421 E3.11819
G1 X114.334 Y111.586 E0.15976
G1 X131.586 Y94.334 E3.34412
G1 X132.752 Y94.334 E0.15976
G1 X114.334 Y112.752 E3.57006
G1 X114.334 Y113.917 E0.15976
G1 X133.918 Y94.334 E3.79599
G1 X135.083 Y94.334 E0.15976
G1 X114.334 Y115.083 E4.02192
M73 Q4 S28
G1 X114.334 Y115.666 E0.07989
G1 X114.917 Y115.666 E0.07987
G1 X135.666 Y94.917 E4.02194
M73 P4 R28
G1 X135.666 Y96.082 E0.15976
G1 X116.082 Y115.666 E3.79601
G1 X117.248 Y115.666 E0.15976
G1 X135.666 Y97.248 E3.57008
G1 X135.666 Y98.414 E0.15976
G1 X118.414 Y115.666 E3.34415
G1 X119.579 Y115.666 E0.15976
G1 X135.666 Y99.579 E3.11821
G1 X135.666 Y100.745 E0.15976
G1 X120.745 Y115.666 E2.89228
G1 X121.910 Y115.666 E0.15976
G1 X135.666 Y101.910 E2.66635
G1 X135.666 Y103.076 E0.15976
G1 X123.076 Y115.666 E2.44042
G1 X124.241 Y115.666 E0.15976
G1 X135.666 Y104.241 E2.21449
G1 X135.666 Y105.407 E0.15976
G1 X125.407 Y115.666 E1.98855
G1 X126.573 Y115.666 E0.15976
G1 X135.666 Y106.573 E1.76262
G1 X135.666 Y107.738 E0.15976
G1 X127.738 Y115.666 E1.53669
G1 X128.904 Y115.666 E0.15976
G1 X135.666 Y108.904 E1.31076
G1 X135.666 Y110.069 E0.15976
G1 X130.069 Y115.666 E1.08483
G1 X131.235 Y115.666 E0.15976
G1 X135.666 Y111.235 E0.85889
M73 P4 R27
G1 X135.666 Y112.400 E0.15976
G1 X132.400 Y115.666 E0.63296
G1 X133.566 Y115.666 E0.15976
M73 Q4 S27
G1 X135.666 Y113.566 E0.40703
G1 X135.666 Y114.732 E0.15976
G1 X134.365 Y116.032 E0.25211
; stop printing object Wall thickness test - Part 2(1).stl id:0 copy 0
;LAYER_CHANGE
;Z:1.1
;HEIGHT:0.4
;BEFORE_LAYER_CHANGE
G92 E0.0
;1.1


;WIPE_START
G1 F8640.000
G1 X135.666 Y114.732 E-0.42472
G1 X135.666 Y113.566 E-0.26914
G1 X133.718 Y115.514 E-0.63614
;WIPE_END
G1 E-0.07000 F2100.000
G1 Z0.900 F10800.000
G1 Z1.100
;AFTER_LAYER_CHANGE
;1.1
; printing object Wall thickness test - Part 2(1).stl id:0 copy 0
G1 Z1.300
G1 X125.000 Y116.236
G1 Z1.100
G1 E1.40000 F2100.000
M204 S800
;TYPE:Perimeter
;WIDTH:0.9
G1 F2397
G1 X113.764 Y116.236 E1.52128
G1 X113.764 Y93.764 E3.04256
G1 X136.236 Y93.764 E3.04256
G1 X136.236 Y116.236 E3.04256
G1 X125.120 Y116.236 E1.50503
M204 S1000
G1 X125.000 Y117.050 F10800.000
M204 S800
;TYPE:External perimeter
G1 F2397
G1 X112.950 Y117.050 E1.63151
G1 X112.950 Y92.950 E3.26303
G1 X137.050 Y92.950 E3.26303
G1 X137.050 Y117.050 E3.26303
G1 X125.120 Y117.050 E1.61527
M204 S1000
G1 X124.377 Y116.548 F10800.000
;WIPE_START
G1 F8640.000
G1 X119.360 Y117.050 E-1.33000
;WIPE_END
G1 E-0.07000 F2100.000
G1 Z1.300 F10800.000
G1 X136.032 Y95.635
G1 Z1.100
G1 E1.40000 F2100.000
;TYPE:Solid infill
;WIDTH:0.91003
G1 F2397
G1 X134.732 Y94.334 E0.25211
G1 X133.566 Y94.334 E0.15976
G1 X135.666 Y96.434 E0.40703
G1 X135.666 Y97.600 E0.15976
G1 X132.400 Y94.334 E0.63296
G1 X131.235 Y94.334 E0.15976
G1 X135.666 Y98.765 E0.85889
G1 X135.666 Y99.931 E0.15976
G1 X130.069 Y94.334 E1.08483
G1 X128.904 Y94.334 E0.15976
G1 X135.666 Y101.096 E1.31076
G1 X135.666 Y102.262 E0.15976
G1 X127.738 Y94.334 E1.53669
G1 X126.573 Y94.334 E0.15976
G1 X135.666 Y103.427 E1.76262
G1 X135.666 Y104.593 E0.15976
G1 X125.407 Y94.334 E1.98855
G1 X124.241 Y94.334 E0.15976
G1 X135.666 Y105.759 E2.21449
G1 X135.666 Y106.924 E0.15976
G1 X123.076 Y94.334 E2.44042
M73 Q5 S27
G1 X121.910 Y94.334 E0.15976
G1 X135.666 Y108.090 E2.66635
M73 P5 R27
G1 X135.666 Y109.255 E0.15976
G1 X120.745 Y94.334 E2.89228
G1 X119.579 Y94.334 E0.15976
G1 X135.666 Y110.421 E3.11821
G1 X135.666 Y111.586 E0.15976
G1 X118.414 Y94.334 E3.34415
G1 X117.248 Y94.334 E0.15976
G1 X135.666 Y112.752 E3.57008
G1 X135.666 Y113.918 E0.15976
G1 X116.082 Y94.334 E3.79601
G1 X114.917 Y94.334 E0.15976
G1 X135.666 Y115.083 E4.02194
G1 X135.666 Y115.666 E0.07987
G1 X135.083 Y115.666 E0.07989
G1 X114.334 Y94.917 E4.02192
G1 X114.334 Y96.082 E0.15976
G1 X133.918 Y115.666 E3.79599
G1 X132.752 Y115.666 E0.15976
G1 X114.334 Y97.248 E3.57006
G1 X114.334 Y98.414 E0.15976
G1 X131.586 Y115.666 E3.34412
G1 X130.421 Y115.666 E0.15976
G1 X114.334 Y99.579 E3.11819
G1 X114.334 Y100.745 E0.15976
G1 X129.255 Y115.666 E2.89226
G1 X128.090 Y115.666 E0.15976
G1 X114.334 Y101.910 E2.66633
G1 X114.334 Y103.076 E0.15976
G1 X126.924 Y115.666 E2.44040
G1 X125.758 Y115.666 E0.15976
G1 X114.334 Y104.242 E2.21446
G1 X114.334 Y105.407 E0.15976
G1 X124.593 Y115.666 E1.98853
G1 X123.427 Y115.666 E0.15976
G1 X114.334 Y106.573 E1.76260
G1 X114.334 Y107.738 E0.15976
G1 X122.262 Y115.666 E1.53667
G1 X121.096 Y115.666 E0.15976
G1 X114.334 Y108.904 E1.31074
G1 X114.334 Y110.069 E0.15976
G1 X119.931 Y115.666 E1.08480
G1 X118.765 Y115.666 E0.15976
G1 X114.334 Y111.235 E0.85887
G1 X114.334 Y112.401 E0.15976
G1 X117.599 Y115.666 E0.63294
G1 X116.434 Y115.666 E0.15976
G1 X114.334 Y113.566 E0.40701
G1 X114.334 Y114.732 E0.15976
G1 X115.635 Y116.032 E0.25209
; stop printing object Wall thickness test - Part 2(1).stl id:0 copy 0
M106 S38.25
;LAYER_CHANGE
;Z:1.5
;HEIGHT:0.4
;BEFORE_LAYER_CHANGE
G92 E0.0
;1.5


;WIPE_START
G1 F8640.000
G1 X114.334 Y114.732 E-0.42469
G1 X114.334 Y113.566 E-0.26914
G1 X116.282 Y115.514 E-0.63618
;WIPE_END
G1 E-0.07000 F2100.000
G1 Z1.300 F10800.000
G1 Z1.500
;AFTER_LAYER_CHANGE
;1.5
; printing object Wall thickness test - Part 2(1).stl id:0 copy 0
G1 Z1.700
G1 X125.000 Y116.236
G1 Z1.500
G1 E1.40000 F2100.000
M204 S800
;TYPE:Perimeter
;WIDTH:0.9
G1 F2393
G1 X113.764 Y116.236 E1.52128
G1 X113.764 Y93.764 E3.04256
G1 X136.236 Y93.764 E3.04256
G1 X136.236 Y116.236 E3.04256
G1 X125.120 Y116.236 E1.50503
M204 S1000
G1 X125.000 Y117.050 F10800.000
M204 S800
;TYPE:External perimeter
G1 F2393
G1 X112.950 Y117.050 E1.63151
G1 X112.950 Y92.950 E3.26303
M73 Q6 S27
G1 X137.050 Y92.950 E3.26303
M73 P6 R27
G1 X137.050 Y117.050 E3.26303
G1 X125.120 Y117.050 E1.61527
M204 S1000
G1 X124.377 Y116.548 F10800.000
;WIPE_START
G1 F8640.000
G1 X119.360 Y117.050 E-1.33000
;WIPE_END
G1 E-0.07000 F2100.000
G1 Z1.700 F10800.000
G1 X113.968 Y95.635
G1 Z1.500
G1 E1.40000 F2100.000
;TYPE:Solid infill
;WIDTH:0.91003
G1 F2393
G1 X115.268 Y94.334 E0.25209
G1 X116.434 Y94.334 E0.15976
G1 X114.334 Y96.434 E0.40701
G1 X114.334 Y97.599 E0.15976
G1 X117.599 Y94.334 E0.63294
G1 X118.765 Y94.334 E0.15976
G1 X114.334 Y98.765 E0.85887
G1 X114.334 Y99.931 E0.15976
G1 X119.931 Y94.334 E1.08480
G1 X121.096 Y94.334 E0.15976
G1 X114.334 Y101.096 E1.31074
G1 X114.334 Y102.262 E0.15976
G1 X122.262 Y94.334 E1.53667
G1 X123.427 Y94.334 E0.15976
G1 X114.334 Y103.427 E1.76260
G1 X114.334 Y104.593 E0.15976
G1 X124.593 Y94.334 E1.98853
G1 X125.758 Y94.334 E0.15976
G1 X114.334 Y105.758 E2.21446
G1 X114.334 Y106.924 E0.15976
G1 X126.924 Y94.334 E2.44040
G1 X128.090 Y94.334 E0.15976
G1 X114.334 Y108.090 E2.66633
G1 X114.334 Y109.255 E0.15976
G1 X129.255 Y94.334 E2.89226
G1 X130.421 Y94.334 E0.15976
G1 X114.334 Y110.421 E3.11819
G1 X114.334 Y111.586 E0.15976
G1 X131.586 Y94.334 E3.34412
G1 X132.752 Y94.334 E0.15976
G1 X114.334 Y112.752 E3.57006
G1 X114.334 Y113.917 E0.15976
G1 X133.918 Y94.334 E3.79599
G1 X135.083 Y94.334 E0.15976
G1 X114.334 Y115.083 E4.02192
G1 X114.334 Y115.666 E0.07989
G1 X114.917 Y115.666 E0.07987
