; generated by PrusaSlicer 2.3.1+win64 on 2021-08-25 at 14:38:45 UTC


;
;

;
;
; 

; external perimeters extrusion width = 0.45mm
; perimeters extrusion width = 0.45mm
; infill extrusion width = 0.45mm
; solid infill extrusion width = 0.45mm
; top infill extrusion width = 0.40mm
; first layer extrusion width = 0.42mm

M73 P0 R29
M201 X1250 Y1250 Z400 E5000 ; sets maximum accelerations, mm/sec^2
M203 X180 Y180 Z12 E80 ; sets maximum feedrates, mm/sec
M204 P1250 R1250 T1250 ; sets acceleration (P, T) and retract acceleration (R), mm/sec^2
M205 X8.00 Y8.00 Z2.00 E10.00 ; sets the jerk limits, mm/sec
M205 S0 T0 ; sets the minimum extruding and travel feed rate, mm/sec
M107
;TYPE:Custom
G90 ; use absolute coordinates
M83 ; extruder relative mode
M104 S170 ; set extruder temp for bed leveling
M140 S60 ; set bed temp
M109 R170 ; wait for bed leveling temp
M190 S60 ; wait for bed temp
G28 ; home all without mesh bed level
G29 ; mesh bed leveling 
M104 S215 ; set extruder temp
G92 E0.0
G1 Y-2.0 X179 F2400
G1 Z3 F720
M109 S215 ; wait for extruder temp

; intro line
G1 X170 F1000
G1 Z0.2 F720
G1 X110.0 E8.0 F900
G1 X40.0 E10.0 F700
G92 E0.0

M221 S95 ; set flow
G21 ; set units to millimeters
G90 ; use absolute coordinates
M83 ; use relative distances for extrusion
M900 K0.2 ; Filament gcode LA 1.5
; ; Filament gcode LA 1.0
;LAYER_CHANGE
;Z:0.2
;HEIGHT:0.2
;BEFORE_LAYER_CHANGE
G92 E0.0
;0.2


G1 E-6.00000 F4200.000
G1 Z0.200 F9000.000
;AFTER_LAYER_CHANGE
;0.2
G1 Z0.400
G1 X46.441 Y82.872
G1 Z0.200
G1 E6.00000 F2400.000
M204 S800
;TYPE:Skirt
;WIDTH:0.42
G1 F1200.000
G1 X47.157 Y82.648 E0.02355
G1 X132.504 Y82.623 E2.67598
M73 P1 R29
G1 X133.399 Y82.799 E0.02860
G1 X134.162 Y83.300 E0.02860
G1 X134.679 Y84.051 E0.02860
G1 X134.876 Y84.946 E0.02872
G1 X134.846 Y95.383 E0.32726
G1 X134.611 Y96.092 E0.02343
G1 X134.168 Y96.694 E0.02343
G1 X133.556 Y97.130 E0.02355
G1 X132.843 Y97.352 E0.02343
G1 X47.447 Y97.376 E2.67753
G1 X46.633 Y97.213 E0.02602
G1 X45.925 Y96.780 E0.02602
G1 X45.409 Y96.130 E0.02602
G1 X45.148 Y95.343 E0.02602
G1 X45.152 Y84.628 E0.33594
G1 X45.385 Y83.914 E0.02355
G1 X45.830 Y83.309 E0.02355
G1 X46.392 Y82.907 E0.02167
M204 S1250
; printing object retraction_tests(1).stl id:0 copy 0
G1 E-4.20000 F4200.000
;WIPE_START
G1 F7200.000
G1 X47.157 Y82.648 E-0.44790
G1 X49.435 Y82.647 E-1.26210
;WIPE_END
G1 E-0.09000 F4200.000
G1 Z0.400 F9000.000
G1 X48.287 Y85.787
G1 Z0.200
G1 E6.00000 F2400.000
M204 S800
;TYPE:Perimeter
G1 F1200.000
G1 X131.713 Y85.787 E2.61576
G1 X131.713 Y94.213 E0.26419
G1 X48.287 Y94.213 E2.61576
M73 P2 R29
G1 X48.287 Y85.847 E0.26231
M204 S1250
G1 X47.910 Y85.410 F9000.000
M204 S800
;TYPE:External perimeter
G1 F1200.000
G1 X132.090 Y85.410 E2.63940
G1 X132.090 Y94.590 E0.28783
G1 X47.910 Y94.590 E2.63940
M73 P2 R28
G1 X47.910 Y85.470 E0.28595
M204 S1250
G1 X48.310 Y85.424 F9000.000
G1 E-4.20000 F4200.000
;WIPE_START
G1 F7200.000
G1 X50.996 Y85.468 E-1.71000
;WIPE_END
G1 E-0.09000 F4200.000
G1 Z0.400 F9000.000
G1 X130.835 Y85.900
G1 Z0.200
G1 E6.00000 F2400.000
M204 S800
;TYPE:Solid infill
;WIDTH:0.421179
G1 F1200.000
G1 X131.430 Y86.495 E0.02647
G1 X131.430 Y87.030 E0.01683
G1 X130.470 Y86.070 E0.04272
G1 X129.935 Y86.070 E0.01683
G1 X131.430 Y87.565 E0.06651
G1 X131.430 Y88.100 E0.01683
G1 X129.400 Y86.070 E0.09030
G1 X128.865 Y86.070 E0.01683
G1 X131.430 Y88.635 E0.11410
G1 X131.430 Y89.170 E0.01683
G1 X128.330 Y86.070 E0.13789
G1 X127.795 Y86.070 E0.01683
G1 X131.430 Y89.705 E0.16169
G1 X131.430 Y90.240 E0.01683
G1 X127.260 Y86.070 E0.18548
G1 X126.725 Y86.070 E0.01683
G1 X131.430 Y90.775 E0.20928
G1 X131.430 Y91.310 E0.01683
G1 X126.190 Y86.070 E0.23307
G1 X125.655 Y86.070 E0.01683
G1 X131.430 Y91.845 E0.25686
G1 X131.430 Y92.380 E0.01683
G1 X125.120 Y86.070 E0.28066
G1 X124.585 Y86.070 E0.01683
G1 X131.430 Y92.915 E0.30445
G1 X131.430 Y93.449 E0.01683
G1 X124.051 Y86.070 E0.32825
G1 X123.516 Y86.070 E0.01683
G1 X131.376 Y93.930 E0.34963
G1 X130.841 Y93.930 E0.01683
G1 X122.981 Y86.070 E0.34963
M73 P3 R28
G1 X122.446 Y86.070 E0.01683
G1 X130.306 Y93.930 E0.34963
G1 X129.771 Y93.930 E0.01683
G1 X121.911 Y86.070 E0.34963
G1 X121.376 Y86.070 E0.01683
G1 X129.236 Y93.930 E0.34963
G1 X128.701 Y93.930 E0.01683
G1 X120.841 Y86.070 E0.34963
G1 X120.306 Y86.070 E0.01683
G1 X128.166 Y93.930 E0.34963
G1 X127.631 Y93.930 E0.01683
G1 X119.771 Y86.070 E0.34963
G1 X119.236 Y86.070 E0.01683
G1 X127.096 Y93.930 E0.34963
G1 X126.561 Y93.930 E0.01683
G1 X118.701 Y86.070 E0.34963
G1 X118.166 Y86.070 E0.01683
G1 X126.026 Y93.930 E0.34963
G1 X125.491 Y93.930 E0.01683
G1 X117.631 Y86.070 E0.34963
G1 X117.096 Y86.070 E0.01683
G1 X124.957 Y93.930 E0.34963
G1 X124.422 Y93.930 E0.01683
G1 X116.561 Y86.070 E0.34963
G1 X116.026 Y86.070 E0.01683
G1 X123.887 Y93.930 E0.34963
G1 X123.352 Y93.930 E0.01683
G1 X115.491 Y86.070 E0.34963
G1 X114.957 Y86.070 E0.01683
G1 X122.817 Y93.930 E0.34963
G1 X122.282 Y93.930 E0.01683
G1 X114.422 Y86.070 E0.34963
G1 X113.887 Y86.070 E0.01683
G1 X121.747 Y93.930 E0.34963
G1 X121.212 Y93.930 E0.01683
G1 X113.352 Y86.070 E0.34963
G1 X112.817 Y86.070 E0.01683
G1 X120.677 Y93.930 E0.34963
G1 X120.142 Y93.930 E0.01683
G1 X112.282 Y86.070 E0.34963
G1 X111.747 Y86.070 E0.01683
G1 X119.607 Y93.930 E0.34963
G1 X119.072 Y93.930 E0.01683
G1 X111.212 Y86.070 E0.34963
G1 X110.677 Y86.070 E0.01683
G1 X118.537 Y93.930 E0.34963
G1 X118.002 Y93.930 E0.01683
G1 X110.142 Y86.070 E0.34963
G1 X109.607 Y86.070 E0.01683
G1 X117.467 Y93.930 E0.34963
G1 X116.932 Y93.930 E0.01683
G1 X109.072 Y86.070 E0.34963
G1 X108.537 Y86.070 E0.01683
G1 X116.398 Y93.930 E0.34963
G1 X115.863 Y93.930 E0.01683
G1 X108.002 Y86.070 E0.34963
G1 X107.467 Y86.070 E0.01683
G1 X115.328 Y93.930 E0.34963
G1 X114.793 Y93.930 E0.01683
G1 X106.932 Y86.070 E0.34963
M73 P4 R28
G1 X106.398 Y86.070 E0.01683
G1 X114.258 Y93.930 E0.34963
G1 X113.723 Y93.930 E0.01683
G1 X105.863 Y86.070 E0.34963
G1 X105.328 Y86.070 E0.01683
G1 X113.188 Y93.930 E0.34963
G1 X112.653 Y93.930 E0.01683
G1 X104.793 Y86.070 E0.34963
G1 X104.258 Y86.070 E0.01683
G1 X112.118 Y93.930 E0.34963
G1 X111.583 Y93.930 E0.01683
G1 X103.723 Y86.070 E0.34963
G1 X103.188 Y86.070 E0.01683
G1 X111.048 Y93.930 E0.34963
G1 X110.513 Y93.930 E0.01683
G1 X102.653 Y86.070 E0.34963
G1 X102.118 Y86.070 E0.01683
G1 X109.978 Y93.930 E0.34963
G1 X109.443 Y93.930 E0.01683
G1 X101.583 Y86.070 E0.34963
G1 X101.048 Y86.070 E0.01683
G1 X108.908 Y93.930 E0.34963
G1 X108.373 Y93.930 E0.01683
G1 X100.513 Y86.070 E0.34963
G1 X99.978 Y86.070 E0.01683
G1 X107.839 Y93.930 E0.34963
G1 X107.304 Y93.930 E0.01683
G1 X99.443 Y86.070 E0.34963
G1 X98.908 Y86.070 E0.01683
G1 X106.769 Y93.930 E0.34963
G1 X106.234 Y93.930 E0.01683
G1 X98.373 Y86.070 E0.34963
G1 X97.839 Y86.070 E0.01683
G1 X105.699 Y93.930 E0.34963
G1 X105.164 Y93.930 E0.01683
G1 X97.304 Y86.070 E0.34963
G1 X96.769 Y86.070 E0.01683
G1 X104.629 Y93.930 E0.34963
G1 X104.094 Y93.930 E0.01683
G1 X96.234 Y86.070 E0.34963
G1 X95.699 Y86.070 E0.01683
G1 X103.559 Y93.930 E0.34963
G1 X103.024 Y93.930 E0.01683
G1 X95.164 Y86.070 E0.34963
G1 X94.629 Y86.070 E0.01683
G1 X102.489 Y93.930 E0.34963
G1 X101.954 Y93.930 E0.01683
G1 X94.094 Y86.070 E0.34963
G1 X93.559 Y86.070 E0.01683
G1 X101.419 Y93.930 E0.34963
G1 X100.884 Y93.930 E0.01683
G1 X93.024 Y86.070 E0.34963
G1 X92.489 Y86.070 E0.01683
G1 X100.349 Y93.930 E0.34963
G1 X99.814 Y93.930 E0.01683
G1 X91.954 Y86.070 E0.34963
G1 X91.419 Y86.070 E0.01683
G1 X99.279 Y93.930 E0.34963
M73 P5 R28
G1 X98.745 Y93.930 E0.01683
G1 X90.884 Y86.070 E0.34963
G1 X90.349 Y86.070 E0.01683
G1 X98.210 Y93.930 E0.34963
G1 X97.675 Y93.930 E0.01683
G1 X89.814 Y86.070 E0.34963
G1 X89.279 Y86.070 E0.01683
G1 X97.140 Y93.930 E0.34963
G1 X96.605 Y93.930 E0.01683
G1 X88.745 Y86.070 E0.34963
G1 X88.210 Y86.070 E0.01683
G1 X96.070 Y93.930 E0.34963
G1 X95.535 Y93.930 E0.01683
G1 X87.675 Y86.070 E0.34963
G1 X87.140 Y86.070 E0.01683
G1 X95.000 Y93.930 E0.34963
G1 X94.465 Y93.930 E0.01683
G1 X86.605 Y86.070 E0.34963
G1 X86.070 Y86.070 E0.01683
G1 X93.930 Y93.930 E0.34963
G1 X93.395 Y93.930 E0.01683
G1 X85.535 Y86.070 E0.34963
G1 X85.000 Y86.070 E0.01683
G1 X92.860 Y93.930 E0.34963
G1 X92.325 Y93.930 E0.01683
G1 X84.465 Y86.070 E0.34963
G1 X83.930 Y86.070 E0.01683
G1 X91.790 Y93.930 E0.34963
G1 X91.255 Y93.930 E0.01683
G1 X83.395 Y86.070 E0.34963
G1 X82.860 Y86.070 E0.01683
G1 X90.720 Y93.930 E0.34963
G1 X90.186 Y93.930 E0.01683
G1 X82.325 Y86.070 E0.34963
G1 X81.790 Y86.070 E0.01683
G1 X89.651 Y93.930 E0.34963
G1 X89.116 Y93.930 E0.01683
G1 X81.255 Y86.070 E0.34963
G1 X80.720 Y86.070 E0.01683
G1 X88.581 Y93.930 E0.34963
G1 X88.046 Y93.930 E0.01683
G1 X80.186 Y86.070 E0.34963
G1 X79.651 Y86.070 E0.01683
G1 X87.511 Y93.930 E0.34963
G1 X86.976 Y93.930 E0.01683
G1 X79.116 Y86.070 E0.34963
G1 X78.581 Y86.070 E0.01683
G1 X86.441 Y93.930 E0.34963
G1 X85.906 Y93.930 E0.01683
G1 X78.046 Y86.070 E0.34963
G1 X77.511 Y86.070 E0.01683
G1 X85.371 Y93.930 E0.34963
M73 P5 R27
G1 X84.836 Y93.930 E0.01683
G1 X76.976 Y86.070 E0.34963
G1 X76.441 Y86.070 E0.01683
G1 X84.301 Y93.930 E0.34963
G1 X83.766 Y93.930 E0.01683
G1 X75.906 Y86.070 E0.34963
G1 X75.371 Y86.070 E0.01683
G1 X83.231 Y93.930 E0.34963
M73 P6 R27
G1 X82.696 Y93.930 E0.01683
G1 X74.836 Y86.070 E0.34963
G1 X74.301 Y86.070 E0.01683
G1 X82.161 Y93.930 E0.34963
G1 X81.626 Y93.930 E0.01683
G1 X73.766 Y86.070 E0.34963
G1 X73.231 Y86.070 E0.01683
G1 X81.092 Y93.930 E0.34963
G1 X80.557 Y93.930 E0.01683
G1 X72.696 Y86.070 E0.34963
G1 X72.161 Y86.070 E0.01683
G1 X80.022 Y93.930 E0.34963
G1 X79.487 Y93.930 E0.01683
G1 X71.626 Y86.070 E0.34963
G1 X71.092 Y86.070 E0.01683
G1 X78.952 Y93.930 E0.34963
G1 X78.417 Y93.930 E0.01683
G1 X70.557 Y86.070 E0.34963
G1 X70.022 Y86.070 E0.01683
G1 X77.882 Y93.930 E0.34963
G1 X77.347 Y93.930 E0.01683
G1 X69.487 Y86.070 E0.34963
G1 X68.952 Y86.070 E0.01683
G1 X76.812 Y93.930 E0.34963
G1 X76.277 Y93.930 E0.01683
G1 X68.417 Y86.070 E0.34963
G1 X67.882 Y86.070 E0.01683
G1 X75.742 Y93.930 E0.34963
G1 X75.207 Y93.930 E0.01683
G1 X67.347 Y86.070 E0.34963
G1 X66.812 Y86.070 E0.01683
G1 X74.672 Y93.930 E0.34963
G1 X74.137 Y93.930 E0.01683
G1 X66.277 Y86.070 E0.34963
G1 X65.742 Y86.070 E0.01683
G1 X73.602 Y93.930 E0.34963
G1 X73.067 Y93.930 E0.01683
G1 X65.207 Y86.070 E0.34963
G1 X64.672 Y86.070 E0.01683
G1 X72.533 Y93.930 E0.34963
G1 X71.998 Y93.930 E0.01683
G1 X64.137 Y86.070 E0.34963
G1 X63.602 Y86.070 E0.01683
G1 X71.463 Y93.930 E0.34963
G1 X70.928 Y93.930 E0.01683
G1 X63.067 Y86.070 E0.34963
G1 X62.533 Y86.070 E0.01683
G1 X70.393 Y93.930 E0.34963
G1 X69.858 Y93.930 E0.01683
G1 X61.998 Y86.070 E0.34963
G1 X61.463 Y86.070 E0.01683
G1 X69.323 Y93.930 E0.34963
G1 X68.788 Y93.930 E0.01683
G1 X60.928 Y86.070 E0.34963
G1 X60.393 Y86.070 E0.01683
G1 X68.253 Y93.930 E0.34963
G1 X67.718 Y93.930 E0.01683
G1 X59.858 Y86.070 E0.34963
M73 P7 R27
G1 X59.323 Y86.070 E0.01683
G1 X67.183 Y93.930 E0.34963
G1 X66.648 Y93.930 E0.01683
G1 X58.788 Y86.070 E0.34963
G1 X58.253 Y86.070 E0.01683
G1 X66.113 Y93.930 E0.34963
G1 X65.578 Y93.930 E0.01683
G1 X57.718 Y86.070 E0.34963
G1 X57.183 Y86.070 E0.01683
G1 X65.043 Y93.930 E0.34963
G1 X64.508 Y93.930 E0.01683
G1 X56.648 Y86.070 E0.34963
G1 X56.113 Y86.070 E0.01683
G1 X63.974 Y93.930 E0.34963
G1 X63.439 Y93.930 E0.01683
G1 X55.578 Y86.070 E0.34963
G1 X55.043 Y86.070 E0.01683
G1 X62.904 Y93.930 E0.34963
G1 X62.369 Y93.930 E0.01683
G1 X54.508 Y86.070 E0.34963
G1 X53.974 Y86.070 E0.01683
G1 X61.834 Y93.930 E0.34963
G1 X61.299 Y93.930 E0.01683
G1 X53.439 Y86.070 E0.34963
G1 X52.904 Y86.070 E0.01683
G1 X60.764 Y93.930 E0.34963
G1 X60.229 Y93.930 E0.01683
G1 X52.369 Y86.070 E0.34963
G1 X51.834 Y86.070 E0.01683
G1 X59.694 Y93.930 E0.34963
G1 X59.159 Y93.930 E0.01683
G1 X51.299 Y86.070 E0.34963
G1 X50.764 Y86.070 E0.01683
G1 X58.624 Y93.930 E0.34963
G1 X58.089 Y93.930 E0.01683
G1 X50.229 Y86.070 E0.34963
G1 X49.694 Y86.070 E0.01683
G1 X57.554 Y93.930 E0.34963
G1 X57.019 Y93.930 E0.01683
G1 X49.159 Y86.070 E0.34963
G1 X48.624 Y86.070 E0.01683
G1 X56.484 Y93.930 E0.34963
G1 X55.949 Y93.930 E0.01683
G1 X48.570 Y86.551 E0.32824
G1 X48.570 Y87.086 E0.01683
G1 X55.414 Y93.930 E0.30445
G1 X54.880 Y93.930 E0.01683
G1 X48.570 Y87.620 E0.28066
G1 X48.570 Y88.155 E0.01683
G1 X54.345 Y93.930 E0.25686
G1 X53.810 Y93.930 E0.01683
G1 X48.570 Y88.690 E0.23307
G1 X48.570 Y89.225 E0.01683
G1 X53.275 Y93.930 E0.20927
G1 X52.740 Y93.930 E0.01683
G1 X48.570 Y89.760 E0.18548
G1 X48.570 Y90.295 E0.01683
G1 X52.205 Y93.930 E0.16168
G1 X51.670 Y93.930 E0.01683
G1 X48.570 Y90.830 E0.13789
G1 X48.570 Y91.365 E0.01683
G1 X51.135 Y93.930 E0.11410
G1 X50.600 Y93.930 E0.01683
G1 X48.570 Y91.900 E0.09030
G1 X48.570 Y92.435 E0.01683
G1 X50.065 Y93.930 E0.06651
G1 X49.530 Y93.930 E0.01683
G1 X48.570 Y92.970 E0.04271
G1 X48.570 Y93.505 E0.01683
G1 X49.165 Y94.100 E0.02647
M204 S1250
; stop printing object retraction_tests(1).stl id:0 copy 0
M106 S84.15
;LAYER_CHANGE
;Z:0.35
;HEIGHT:0.15
;BEFORE_LAYER_CHANGE
G92 E0.0
;0.35


G1 E-4.20000 F4200.000
;WIPE_START
G1 F7200.000
G1 X48.570 Y93.505 E-0.46632
G1 X48.570 Y92.970 E-0.29645
G1 X49.530 Y93.930 E-0.75258
G1 X49.881 Y93.930 E-0.19465
;WIPE_END
G1 E-0.09000 F4200.000
G1 Z0.400 F9000.000
;AFTER_LAYER_CHANGE
;0.35
M104 S210 ; set temperature
M73 P8 R27
G1 X46.633 Y97.213
G1 Z0.350
G1 E6.00000 F2400.000
;TYPE:Skirt
;WIDTH:0.42
G1 X45.925 Y96.780 E0.02007
G1 X45.409 Y96.130 E0.02007
G1 X45.148 Y95.343 E0.02007
G1 X45.152 Y84.628 E0.25913
G1 X45.385 Y83.914 E0.01816
G1 X45.830 Y83.309 E0.01816
G1 X46.441 Y82.872 E0.01816
G1 X47.157 Y82.648 E0.01816
G1 X132.504 Y82.623 E2.06410
G1 X133.399 Y82.799 E0.02206
G1 X134.162 Y83.300 E0.02206
G1 X134.679 Y84.051 E0.02206
G1 X134.876 Y84.946 E0.02215
G1 X134.846 Y95.383 E0.25243
G1 X134.611 Y96.092 E0.01807
G1 X134.168 Y96.694 E0.01807
G1 X133.556 Y97.130 E0.01816
G1 X132.843 Y97.352 E0.01807
G1 X47.447 Y97.376 E2.06529
G1 X46.692 Y97.225 E0.01862
; printing object retraction_tests(1).stl id:0 copy 0
G1 E-4.20000 F4200.000
;WIPE_START
G1 F7200.000
G1 X45.925 Y96.780 E-0.49126
G1 X45.409 Y96.130 E-0.45990
G1 X45.148 Y95.343 E-0.45990
G1 X45.148 Y94.803 E-0.29894
;WIPE_END
G1 E-0.09000 F4200.000
G1 Z0.550 F9000.000
G1 X48.143 Y94.357
G1 Z0.350
G1 E6.00000 F2400.000
M204 S800
;TYPE:Perimeter
;WIDTH:0.45
G1 X48.143 Y85.643 E0.22706
G1 X131.857 Y85.643 E2.18124
G1 X131.857 Y94.357 E0.22706
G1 X48.203 Y94.357 E2.17968
M204 S1250
G1 X47.725 Y94.775 F9000.000
M204 S800
;TYPE:External perimeter
G1 F1800.000
G1 X47.725 Y85.225 E0.24883
G1 X132.275 Y85.225 E2.20301
G1 X132.275 Y94.775 E0.24883
G1 X47.785 Y94.775 E2.20145
M204 S1250
G1 X47.912 Y94.421 F9000.000
G1 E-4.20000 F4200.000
;WIPE_START
G1 F7200.000
G1 X47.766 Y91.689 E-1.71000
;WIPE_END
G1 E-0.09000 F4200.000
G1 Z0.550 F9000.000
G1 X130.883 Y94.232
M73 P9 R27
G1 Z0.350
G1 E6.00000 F2400.000
M204 S1000
;TYPE:Solid infill
;WIDTH:0.451942
G1 F4800.000
G1 X131.544 Y93.571 E0.02446
G1 X131.544 Y92.978 E0.01554
G1 X130.478 Y94.044 E0.03947
G1 X129.884 Y94.044 E0.01554
G1 X131.544 Y92.384 E0.06145
G1 X131.544 Y91.790 E0.01554
G1 X129.290 Y94.044 E0.08343
G1 X128.697 Y94.044 E0.01554
G1 X131.544 Y91.197 E0.10540
G1 X131.544 Y90.603 E0.01554
G1 X128.103 Y94.044 E0.12738
G1 X127.509 Y94.044 E0.01554
G1 X131.544 Y90.009 E0.14935
G1 X131.544 Y89.416 E0.01554
G1 X126.916 Y94.044 E0.17133
G1 X126.322 Y94.044 E0.01554
G1 X131.544 Y88.822 E0.19330
G1 X131.544 Y88.229 E0.01554
G1 X125.729 Y94.044 E0.21528
G1 X125.135 Y94.044 E0.01554
G1 X131.544 Y87.635 E0.23725
G1 X131.544 Y87.041 E0.01554
G1 X124.541 Y94.044 E0.25923
G1 X123.948 Y94.044 E0.01554
G1 X131.544 Y86.448 E0.28121
G1 X131.544 Y85.956 E0.01287
G1 X131.442 Y85.956 E0.00267
G1 X123.354 Y94.044 E0.29940
G1 X122.760 Y94.044 E0.01554
G1 X130.848 Y85.956 E0.29940
G1 X130.255 Y85.956 E0.01554
G1 X122.167 Y94.044 E0.29940
G1 X121.573 Y94.044 E0.01554
G1 X129.661 Y85.956 E0.29940
G1 X129.067 Y85.956 E0.01554
G1 X120.980 Y94.044 E0.29940
G1 X120.386 Y94.044 E0.01554
G1 X128.474 Y85.956 E0.29940
G1 X127.880 Y85.956 E0.01554
G1 X119.792 Y94.044 E0.29940
G1 X119.199 Y94.044 E0.01554
G1 X127.286 Y85.956 E0.29940
